usr/share/icons/biglinux-icons-material/scalable/mimetypes/image-x-generic.svg

<svg width="24" height="24" viewBox="0 0 24 24" fill="none" xmlns="http://www.w3.org/2000/svg">
<rect x="1" y="1" width="22" height="22" rx="6.6" fill="url(#paint0_radial_3_18)"/>
<g opacity="0.35">
<path opacity="0.220771" d="M9.333 10.639C10.3241 10.639 11.1275 9.83557 11.1275 8.8445C11.1275 7.85342 10.3241 7.05 9.333 7.05C8.34192 7.05 7.5385 7.85342 7.5385 8.8445C7.5385 9.83557 8.34192 10.639 9.333 10.639Z" fill="black" stroke="black" stroke-width="0.172748" stroke-linecap="round" stroke-linejoin="round"/>
<path opacity="0.220771" d="M14.3118 10.0949C14.0684 10.095 13.8301 10.1652 13.6254 10.2969C13.4207 10.4287 13.2582 10.6166 13.1573 10.8381L11.8867 13.0427C11.8799 13.0551 11.8729 13.0673 11.8655 13.0794L11.8526 13.1018H11.8515C11.7669 13.2325 11.651 13.34 11.5143 13.4145C11.3776 13.4889 11.2244 13.528 11.0688 13.5281C10.9131 13.528 10.76 13.4889 10.6233 13.4145C10.4866 13.34 10.3707 13.2325 10.2861 13.1018H10.2842L9.93565 12.7533C9.81477 12.596 9.65937 12.4686 9.48143 12.381C9.3035 12.2933 9.1078 12.2477 8.90944 12.2477C8.64158 12.2479 8.38037 12.3312 8.16183 12.486C7.94329 12.6409 7.77819 12.8598 7.68928 13.1125L6.79205 14.8392C6.75738 14.8987 6.72562 14.9598 6.69688 15.0224L6.67372 15.067L6.67599 15.0704C6.56042 15.3363 6.50053 15.623 6.5 15.9129C6.49999 16.1918 6.5549 16.4679 6.6616 16.7255C6.76829 16.9831 6.92468 17.2171 7.12184 17.4143C7.31899 17.6115 7.55305 17.7679 7.81065 17.8746C8.06825 17.9813 8.34435 18.0362 8.62318 18.0362C8.63882 18.0358 8.65446 18.0352 8.67009 18.0344H15.259C15.2746 18.0352 15.2903 18.0358 15.3059 18.0362C15.5847 18.0362 15.8608 17.9813 16.1185 17.8746C16.3761 17.7679 16.6101 17.6115 16.8073 17.4143C17.0045 17.2172 17.1609 16.9831 17.2676 16.7255C17.3743 16.4679 17.4292 16.1918 17.4292 15.9129C17.4291 15.6015 17.3606 15.2939 17.2284 15.0119L17.2316 15.007L15.5192 10.9724C15.4963 10.9017 15.4673 10.8332 15.4324 10.7677L15.4194 10.737H15.4155C15.3047 10.5421 15.1441 10.3799 14.9503 10.2671C14.7564 10.1543 14.5361 10.0949 14.3118 10.0949Z" fill="black" stroke="black" stroke-width="0.172748" stroke-linecap="round" stroke-linejoin="round"/>
</g>
<path d="M9.88307 10.089C10.8741 10.089 11.6776 9.28557 11.6776 8.2945C11.6776 7.30342 10.8741 6.5 9.88307 6.5C8.89199 6.5 8.08857 7.30342 8.08857 8.2945C8.08857 9.28557 8.89199 10.089 9.88307 10.089Z" fill="url(#paint1_linear_3_18)"/>
<path d="M14.8618 9.54486C14.6184 9.54501 14.3801 9.61515 14.1754 9.74692C13.9707 9.8787 13.8082 10.0665 13.7073 10.2881L12.4367 12.4927C12.4299 12.5051 12.4229 12.5173 12.4156 12.5294L12.4026 12.5518H12.4015C12.3169 12.6825 12.201 12.79 12.0643 12.8645C11.9276 12.9389 11.7744 12.978 11.6188 12.9781C11.4631 12.978 11.31 12.9389 11.1733 12.8645C11.0366 12.79 10.9207 12.6825 10.8361 12.5518H10.8342L10.4857 12.2033C10.3648 12.046 10.2094 11.9186 10.0314 11.831C9.8535 11.7433 9.6578 11.6977 9.45944 11.6977C9.19158 11.6979 8.93037 11.7811 8.71183 11.936C8.4933 12.0909 8.32819 12.3098 8.23928 12.5625L7.34205 14.2892C7.30738 14.3487 7.27562 14.4098 7.24689 14.4724L7.22372 14.517L7.22599 14.5204C7.11042 14.7863 7.05053 15.073 7.05 15.3629C7.04999 15.6418 7.1049 15.9179 7.2116 16.1755C7.31829 16.4331 7.47468 16.6671 7.67184 16.8643C7.86899 17.0615 8.10305 17.2179 8.36065 17.3246C8.61826 17.4313 8.89435 17.4862 9.17318 17.4862C9.18882 17.4858 9.20446 17.4852 9.22009 17.4844H15.809C15.8246 17.4852 15.8403 17.4858 15.8559 17.4862C16.1347 17.4862 16.4108 17.4313 16.6685 17.3246C16.9261 17.2179 17.1601 17.0615 17.3573 16.8643C17.5545 16.6672 17.7109 16.4331 17.8176 16.1755C17.9243 15.9179 17.9792 15.6418 17.9792 15.3629C17.9791 15.0515 17.9106 14.7439 17.7784 14.4619L17.7816 14.457L16.0692 10.4224C16.0463 10.3517 16.0173 10.2832 15.9824 10.2177L15.9694 10.187H15.9655C15.8547 9.99205 15.6941 9.8299 15.5003 9.7171C15.3064 9.60429 15.0861 9.54487 14.8618 9.54486Z" fill="url(#paint2_linear_3_18)"/>
<defs>
<radialGradient id="paint0_radial_3_18" cx="0" cy="0" r="1" gradientUnits="userSpaceOnUse" gradientTransform="translate(17.5 1) rotate(116.565) scale(24.5967)">
<stop stop-color="#95BFFF"/>
<stop offset="1" stop-color="#5C9DFF"/>
</radialGradient>
<linearGradient id="paint1_linear_3_18" x1="8.62625" y1="9.35945" x2="11.2451" y2="7.14984" gradientUnits="userSpaceOnUse">
<stop stop-color="#CBC900"/>
<stop offset="1" stop-color="#F4ED12"/>
</linearGradient>
<linearGradient id="paint2_linear_3_18" x1="6.98253" y1="16.9545" x2="17.978" y2="10.6062" gradientUnits="userSpaceOnUse">
<stop stop-color="#84FAA1"/>
<stop offset="1" stop-color="#33C478"/>
</linearGradient>
</defs>
</svg>

<svg xmlns="http://www.w3.org/2000/svg" width="24" height="24" fill="none"><rect width="22" height="22" x="1" y="1" fill="url(#a)" rx="6.6"/><g fill="#000" stroke="#000" stroke-linecap="round" stroke-linejoin="round" stroke-width=".173" opacity=".35"><path d="M9.333 10.639a1.794 1.794 0 1 0 0-3.589 1.794 1.794 0 0 0 0 3.589ZM14.312 10.095a1.27 1.27 0 0 0-1.155.743l-1.27 2.205a.894.894 0 0 1-.021.036l-.013.023h-.002a.934.934 0 0 1-1.228.313.934.934 0 0 1-.337-.313h-.002l-.348-.349a1.293 1.293 0 0 0-2.247.36l-.897 1.726c-.035.06-.066.12-.095.183l-.023.045.002.003a2.123 2.123 0 0 0-.014 1.655 2.123 2.123 0 0 0 2.008 1.31h6.589l.047.001a2.124 2.124 0 0 0 1.922-3.024l.004-.005-1.713-4.035a1.263 1.263 0 0 0-.087-.204l-.013-.031h-.004a1.27 1.27 0 0 0-1.103-.642Z" opacity=".221"/></g><path fill="url(#b)" d="M9.883 10.089a1.795 1.795 0 1 0 0-3.59 1.795 1.795 0 0 0 0 3.59Z"/><path fill="url(#c)" d="M14.862 9.545a1.27 1.27 0 0 0-1.155.743l-1.27 2.205a1.025 1.025 0 0 1-.021.036l-.013.023H12.4a.934.934 0 0 1-1.228.313.934.934 0 0 1-.337-.313h-.002l-.348-.349a1.293 1.293 0 0 0-2.247.36l-.897 1.726c-.035.06-.066.12-.095.183l-.023.045.002.003a2.123 2.123 0 0 0-.014 1.655 2.123 2.123 0 0 0 2.008 1.31h6.589l.047.001a2.124 2.124 0 0 0 1.922-3.024l.004-.005-1.713-4.035a1.263 1.263 0 0 0-.087-.204l-.013-.031h-.003a1.27 1.27 0 0 0-1.104-.642Z"/><defs><linearGradient id="b" x1="8.626" x2="11.245" y1="9.359" y2="7.15" gradientUnits="userSpaceOnUse"><stop stop-color="#CBC900"/><stop offset="1" stop-color="#F4ED12"/></linearGradient><linearGradient id="c" x1="6.983" x2="17.978" y1="16.954" y2="10.606" gradientUnits="userSpaceOnUse"><stop stop-color="#84FAA1"/><stop offset="1" stop-color="#33C478"/></linearGradient><radialGradient id="a" cx="0" cy="0" r="1" gradientTransform="rotate(116.565 8.441 5.908) scale(24.5967)" gradientUnits="userSpaceOnUse"><stop stop-color="#95BFFF"/><stop offset="1" stop-color="#5C9DFF"/></radialGradient></defs></svg>
